X: 1
T: Bucks Of Westmeath, The
M: 6/8
L: 1/8
R: jig
K: Gmaj
|:e | d3 BdB | G2A B2c | d3 BdB | cAB c2e |
d3 BdB | G2A B2d | gfe dcB | cAB c2 :|
|:d | gfg dcB | gfg dcB | gfg dcB | A2B c2d |
gfg aba | gfe def | gfe dcB | A2B c2 :|
|:e | dBG G2e | dBG G2e | dBG G2B | A2B c2e |
dBG G2e | dBG G2d | gfe dcB | A2B c2 :|
